brigadir/img/svg/menu_rt_search.svg

<svg width="24" height="23" viewBox="0 0 24 23" fill="none" xmlns="http://www.w3.org/2000/svg">
<path fill-rule="evenodd" clip-rule="evenodd" d="M9.9 19.4615C4.43238 19.4615 0 15.1049 0 9.73077C0 4.35661 4.43238 0 9.9 0C15.3676 0 19.8 4.35661 19.8 9.73077C19.8 11.8517 19.1097 13.8141 17.9378 15.4128L16.6402 14.1538L15 15.8601L16.3187 17.1394C14.5904 18.5875 12.349 19.4615 9.9 19.4615ZM16.3187 17.1394L22.3598 23L24 21.2938L17.9378 15.4128C17.4704 16.0505 16.9262 16.6304 16.3187 17.1394ZM9.9 17.1026C14.0421 17.1026 17.4 13.8021 17.4 9.73077C17.4 5.65944 14.0421 2.35897 9.9 2.35897C5.75786 2.35897 2.4 5.65944 2.4 9.73077C2.4 13.8021 5.75786 17.1026 9.9 17.1026Z" fill="#324769"/>
</svg>

<svg width="24" height="23" fill="none" xmlns="http://www.w3.org/2000/svg"><path fill-rule="evenodd" clip-rule="evenodd" d="M9.9 19.462c-5.468 0-9.9-4.357-9.9-9.731S4.432 0 9.9 0s9.9 4.357 9.9 9.73c0 2.122-.69 4.084-1.862 5.683l-1.298-1.26L15 15.86l1.319 1.28A9.962 9.962 0 019.9 19.461zm6.419-2.323L22.359 23 24 21.294l-6.062-5.881a9.853 9.853 0 01-1.62 1.726zM9.9 17.103c4.142 0 7.5-3.3 7.5-7.372s-3.358-7.372-7.5-7.372c-4.142 0-7.5 3.3-7.5 7.372 0 4.071 3.358 7.372 7.5 7.372z" fill="#324769"/></svg>
